src/static/wifi.svg

<svg
  width="16"
  height="14"
  viewBox="0 0 16 14"
  fill="none"
  xmlns="http://www.w3.org/2000/svg"
>
  <path
    d="M8.13198 8.93945C8.77147 8.93945 9.39286 9.1075 9.94037 9.42792L10.1622 9.55775C10.3304 9.65617 10.36 9.88652 10.2221 10.024L8.328 11.9129C8.21166 12.0289 8.02303 12.0289 7.90669 11.9129L6.02478 10.0362C5.88749 9.89927 5.91611 9.67009 6.08287 9.57094L6.30222 9.44051C6.85476 9.11198 7.48403 8.93945 8.13198 8.93945Z"
    fill="#191C20"
  />
  <path
    d="M8.13267 5.46973C9.7235 5.46973 11.2509 5.99747 12.4952 6.97479L12.6711 7.11291C12.8113 7.22303 12.8236 7.43052 12.6974 7.55636L11.5666 8.684C11.462 8.7883 11.2965 8.80028 11.1779 8.71214L11.0401 8.60969C10.1997 7.98511 9.18633 7.65008 8.13267 7.65008C7.07251 7.65008 6.05323 7.98928 5.21005 8.62103L5.07207 8.72441C4.95346 8.81327 4.78737 8.80157 4.68247 8.69696L3.5521 7.56974C3.42618 7.44417 3.43813 7.2372 3.57769 7.12687L3.75254 6.98864C4.99979 6.00261 6.53416 5.46973 8.13267 5.46973Z"
    fill="#191C20"
  />
  <path
    d="M8.13272 2C10.6574 2 13.0717 2.89057 14.9828 4.52294L15.1459 4.66228C15.2777 4.77488 15.2855 4.97558 15.1627 5.09797L14.0356 6.22195C13.9264 6.33084 13.7519 6.33847 13.6336 6.23952L13.494 6.12283C11.9894 4.86472 10.1035 4.18035 8.13272 4.18035C6.15517 4.18035 4.26327 4.86943 2.75641 6.13541L2.6168 6.2527C2.4985 6.3521 2.32359 6.34466 2.2142 6.23557L1.08726 5.11176C0.964693 4.98954 0.972236 4.78918 1.10365 4.67646L1.26614 4.53708C3.17953 2.89589 5.60056 2 8.13272 2Z"
    fill="#191C20"
  />
</svg>

<svg xmlns="http://www.w3.org/2000/svg" width="16" height="14" fill="none"><path fill="#191C20" d="M8.132 8.94c.64 0 1.26.168 1.808.488l.222.13a.297.297 0 0 1 .06.466l-1.894 1.889a.299.299 0 0 1-.421 0l-1.882-1.877a.297.297 0 0 1 .058-.465l.22-.13a3.571 3.571 0 0 1 1.829-.502ZM8.133 5.47a7.04 7.04 0 0 1 4.362 1.505l.176.138c.14.11.153.318.026.443l-1.13 1.128a.299.299 0 0 1-.39.028l-.137-.102a4.858 4.858 0 0 0-2.907-.96c-1.06 0-2.08.34-2.923.971l-.138.103a.299.299 0 0 1-.39-.027L3.552 7.57a.297.297 0 0 1 .026-.443l.175-.138a7.04 7.04 0 0 1 4.38-1.52Z"/><path fill="#191C20" d="M8.133 2c2.524 0 4.939.89 6.85 2.523l.163.14c.132.112.14.313.017.435l-1.127 1.124a.298.298 0 0 1-.402.018l-.14-.117A8.33 8.33 0 0 0 8.133 4.18a8.33 8.33 0 0 0-5.377 1.955l-.14.118a.299.299 0 0 1-.402-.017L1.087 5.112a.297.297 0 0 1 .017-.436l.162-.139A10.513 10.513 0 0 1 8.133 2Z"/></svg>
